packages/foundations/assets/icons/functional/images/file/cloud_download_28.svg

<svg width="28" height="28" viewBox="0 0 28 28" fill="none" xmlns="http://www.w3.org/2000/svg">
<g clip-path="url(#clip0_185_878)">
<path fill-rule="evenodd" clip-rule="evenodd" d="M14 12.9062C14.4487 12.9062 14.8186 13.244 14.8691 13.6792L14.875 13.7812V22.6047L16.4438 21.0375C16.7592 20.7221 17.2555 20.6978 17.5988 20.9647L17.6812 21.0375C17.9966 21.353 18.0209 21.8493 17.754 22.1925L17.6812 22.275L14.6187 25.3375C14.3033 25.6529 13.807 25.6772 13.4637 25.4103L13.3813 25.3375L10.3188 22.275C9.97707 21.9333 9.97707 21.3792 10.3188 21.0375C10.6342 20.7221 11.1305 20.6978 11.4738 20.9647L11.5562 21.0375L13.125 22.6047V13.7812C13.125 13.298 13.5168 12.9062 14 12.9062ZM17.0625 2.40625C20.685 2.40625 23.625 5.34438 23.625 8.96875L23.6182 9.53487C25.091 10.4981 26.0839 12.058 26.2309 13.7691L26.2452 13.9931L26.25 14.2188C26.25 17.2299 23.7386 19.6806 20.5547 19.8919L20.3415 19.9026L19.2496 19.9027C18.8011 19.9027 18.4314 19.5651 18.3809 19.1302L18.375 19.0282C18.375 18.5452 18.7665 18.1536 19.2496 18.1535L20.2961 18.1533C22.5871 18.0741 24.3941 16.4177 24.4955 14.3979L24.5 14.2188C24.5 12.7865 23.6393 11.4788 22.2618 10.7829C21.9155 10.6079 21.7257 10.2257 21.7958 9.84396C21.8483 9.55756 21.875 9.26508 21.875 8.96875C21.875 6.31088 19.7204 4.15625 17.0625 4.15625C15.2556 4.15625 13.6272 5.16025 12.7999 6.73128C12.5848 7.13962 12.0896 7.31074 11.6684 7.12229C11.168 6.89845 10.6243 6.78125 10.0625 6.78125C8.09988 6.78125 6.44432 8.2264 6.16644 10.1488C6.12603 10.4284 5.95312 10.6713 5.70216 10.801C4.34473 11.5025 3.5 12.7997 3.5 14.2188C3.5 16.3156 5.33616 18.0572 7.67346 18.1523L7.875 18.1564L8.75044 18.1559C9.19869 18.1556 9.56832 18.4928 9.61906 18.9275L9.625 19.0299C9.625 19.5131 9.23359 19.9049 8.75044 19.9054L7.875 19.9062C4.58006 19.9062 1.86766 17.4841 1.75373 14.4195L1.75 14.2188C1.75 12.3482 2.72825 10.6456 4.30563 9.5954L4.49777 9.47253L4.55778 9.28521C5.16129 6.95634 7.19143 5.23524 9.62172 5.04816L9.8507 5.03514L10.0625 5.03125C10.4941 5.03125 10.9194 5.07951 11.3322 5.1737L11.6394 5.25291L11.7586 5.10229C12.9283 3.49893 15.0215 2.40625 17.0625 2.40625Z" fill="#1A1C1F"/>
</g>
<defs>
<clipPath id="clip0_185_878">
<rect width="28" height="28" fill="white"/>
</clipPath>
</defs>
</svg>

<svg xmlns="http://www.w3.org/2000/svg" width="28" height="28" fill="none"><g clip-path="url(#a)"><path fill="#1A1C1F" fill-rule="evenodd" d="M14 12.906c.449 0 .819.338.87.773l.005.102v8.824l1.569-1.567a.875.875 0 0 1 1.155-.073l.082.073c.316.315.34.811.073 1.154l-.073.083-3.062 3.063a.875.875 0 0 1-1.155.072l-.083-.073-3.062-3.062a.875.875 0 0 1 1.155-1.31l.082.073 1.569 1.567V13.78c0-.483.392-.875.875-.875m3.063-10.5a6.564 6.564 0 0 1 6.562 6.563l-.007.566c1.473.963 2.466 2.523 2.613 4.234l.014.224.005.226c0 3.01-2.511 5.462-5.695 5.673l-.213.01H19.25a.875.875 0 0 1-.87-.772l-.005-.102c0-.483.392-.874.875-.874h1.046c2.291-.08 4.098-1.736 4.2-3.756l.004-.18c0-1.431-.86-2.74-2.238-3.435a.875.875 0 0 1-.466-.939A4.812 4.812 0 0 0 12.8 6.731a.875.875 0 0 1-1.132.391 3.938 3.938 0 0 0-5.502 3.027.88.88 0 0 1-.464.652C4.345 11.502 3.5 12.8 3.5 14.219c0 2.097 1.836 3.838 4.173 3.933l.202.004h.875c.449 0 .818.337.87.771l.005.103a.875.875 0 0 1-.875.875l-.875.001c-3.295 0-6.007-2.422-6.121-5.486l-.004-.201c0-1.87.978-3.573 2.556-4.624l.192-.122.06-.188a5.69 5.69 0 0 1 5.064-4.237l.229-.013.211-.004q.65.001 1.27.143l.307.079.12-.15c1.17-1.604 3.262-2.697 5.304-2.697" clip-rule="evenodd"/></g><defs><clipPath id="a"><path fill="#fff" d="M0 0h28v28H0z"/></clipPath></defs></svg>
